X:240
T:B240-  [Ah!] Jenny Gin
Q:1/4=120
L:1/4
M:6/4
K:Gm
d|B2Ac2G|(^FG)A(AB)c|B2Aec2|(A3A2)d|\
B2Ac2G|(^FG)AA2^c|d2(e/2f/2)f2(e/2d/2)|d3f3|\
(d3/2c/2)B(df)c|(AB)c(c2e)|d3/2c/2Bcc2|\
(^F3F2)g|(d2B) (cd)e|dg^fg2(d/2e/2)|\
(fd)BB2(G|G) (G2G2)|]

